assets/d-BPzwPEN5.svg

<svg width="247" height="121" viewBox="0 0 247 121" fill="none" xmlns="http://www.w3.org/2000/svg">
<path d="M111.864 41.6691C111.864 37.7539 110.745 34.6776 108.508 32.4404C106.27 30.2031 103.287 28.9912 99.5586 28.8048C95.8298 28.6184 92.2875 29.3641 88.9316 31.0421C85.7621 32.5336 83.2452 34.2115 81.3808 36.0759C79.7028 37.9403 78.491 39.4318 77.7452 40.5505C77.1859 41.4827 76.7198 41.8556 76.3469 41.6691C75.974 41.4827 76.0673 40.8301 76.6266 39.7115C77.1859 38.4064 78.2113 36.9149 79.7028 35.237C81.3808 33.1861 83.9909 31.1353 87.5333 29.0845C91.2621 26.8472 95.5502 25.915 100.398 26.2879C104.686 26.4743 108.321 27.9658 111.304 30.7624C114.474 33.3726 116.059 37.1946 116.059 42.2284C116.059 47.4487 114.567 52.7623 111.584 58.169C108.601 63.3893 104.499 68.1435 99.279 72.4316C93.8722 76.9062 87.4401 80.5418 79.9825 83.3384C72.7113 85.9485 64.7877 87.0671 56.2114 86.6943C45.9573 86.135 37.9404 83.618 32.1607 79.1435C26.3811 74.6689 23.5845 68.0503 23.771 59.2877C23.9574 50.8979 26.8472 43.0674 32.4404 35.7963C38.0336 28.5251 45.398 22.2794 54.5335 17.0591C63.669 11.6524 73.9232 7.45746 85.296 4.47443C96.8553 1.4914 108.601 -0.000117861 120.533 -0.000117861C132.092 -0.000117861 143.465 1.4914 154.652 4.47443C166.024 7.45746 175.346 12.2117 182.617 18.7371C184.295 17.6184 186.812 16.1269 190.168 14.2625C193.711 12.2117 197.253 10.4405 200.795 8.94898C204.338 7.6439 208.439 6.43205 213.1 5.31341C217.948 4.00833 222.982 3.35579 228.202 3.35579C231.931 3.35579 235.1 3.82189 237.71 4.75409C240.32 5.68629 242.371 6.61849 243.863 7.55069C244.795 8.29644 245.541 9.13542 246.1 10.0676C246.659 10.8134 246.753 11.3727 246.38 11.7456C246.007 11.932 245.634 11.7456 245.261 11.1863C244.888 10.6269 243.956 9.88118 242.465 8.94898C241.346 8.20322 239.575 7.55068 237.151 6.99137C234.727 6.24561 231.744 5.87273 228.202 5.87273C223.727 5.87273 219.253 6.43205 214.778 7.55069C210.304 8.66932 206.109 10.0676 202.194 11.7456C198.465 13.4235 195.016 15.2879 191.846 17.3388C188.863 19.2032 186.719 20.6947 185.414 21.8133C189.702 26.4743 192.872 31.5082 194.922 36.9149C196.973 42.3217 197.999 47.9148 197.999 53.6945C198.185 59.4741 197.439 65.1605 195.761 70.7537C194.27 76.3469 191.846 81.5672 188.49 86.4146C184.575 92.1942 179.634 97.2281 173.668 101.516C167.702 105.804 161.177 109.347 154.092 112.143C147.008 114.94 139.643 116.991 131.999 118.296C124.542 119.601 117.27 120.253 110.186 120.253C102.915 120.253 95.6434 120.067 88.3723 119.694C81.1011 119.508 75.6012 119.228 71.8724 118.855C67.9571 119.228 63.2961 119.601 57.8894 119.974C52.6691 120.347 48.1013 120.533 44.1861 120.533C37.8471 120.533 31.9743 120.533 26.5676 120.533C21.1608 120.533 16.4998 120.347 12.5846 119.974C8.66936 119.787 5.59311 119.321 3.35583 118.575C1.11856 117.83 -7.86119e-05 116.804 -7.86119e-05 115.499C0.372801 112.889 4.38125 111.304 12.0253 110.745C19.6693 109.999 29.1777 109.813 40.5505 110.186C45.5844 110.372 51.6437 110.931 58.7284 111.864C65.8131 112.609 72.2452 113.448 78.0249 114.381C83.8045 112.703 89.0248 110.186 93.6858 106.83C98.5332 103.287 103.101 99.3722 107.389 95.084C111.677 90.6095 115.779 85.8553 119.694 80.8214C123.796 75.6011 127.991 70.474 132.279 65.4402C135.635 61.5249 139.27 57.4233 143.185 53.1352C147.287 48.847 151.296 44.7454 155.211 40.8301C159.313 36.9149 163.321 33.2793 167.236 29.9234C171.338 26.5675 175.067 23.7709 178.423 21.5336C175.253 18.3642 171.431 15.5676 166.957 13.1439C162.482 10.7202 157.635 8.76254 152.414 7.27102C147.194 5.59307 141.787 4.38121 136.194 3.63546C130.787 2.8897 125.567 2.51682 120.533 2.51682C109.533 2.51682 98.9061 4.10155 88.6519 7.27102C78.5842 10.4405 69.6351 14.7286 61.8046 20.1354C53.9742 25.5421 47.6352 31.881 42.7878 39.1522C38.1268 46.2369 35.7031 53.6945 35.5167 61.5249C35.5167 67.6774 37.1946 72.8977 40.5505 77.1859C44.0929 81.2875 49.4064 83.5248 56.4911 83.8977C64.3216 84.457 71.5927 83.3384 78.3045 80.5418C85.0164 77.5587 90.8892 73.8299 95.9231 69.3554C100.77 64.8808 104.593 60.2199 107.389 55.3724C110.372 50.3386 111.864 45.864 111.864 41.9488V41.6691ZM82.2198 115.22C83.152 115.406 84.5503 115.592 86.4147 115.779C88.4655 115.965 90.6095 116.245 92.8468 116.618C95.0841 116.804 97.3214 116.991 99.5586 117.177C101.982 117.364 104.033 117.457 105.711 117.457C120.067 117.457 133.211 114.381 145.143 108.228C157.262 102.076 167.796 92.8468 176.745 80.5418C180.101 75.8808 182.711 71.0333 184.575 65.9995C186.439 60.9656 187.558 55.9317 187.931 50.8979C188.49 45.864 188.211 41.1098 187.092 36.6353C186.16 32.1607 184.295 28.1523 181.499 24.6099C179.075 26.8472 176.465 29.737 173.668 33.2793C171.058 36.8217 168.262 40.6437 165.279 44.7454C162.296 48.847 159.313 53.1352 156.329 57.6097C153.346 61.8978 150.27 65.9995 147.101 69.9147C141.694 76.4401 136.38 82.1265 131.16 86.9739C125.94 91.8214 120.72 96.0162 115.499 99.5586C110.279 103.101 104.872 106.084 99.279 108.508C93.8722 110.931 88.1858 113.075 82.2198 114.94V115.22Z" fill="url(#paint0_linear_2611_687)"/>
<defs>
<linearGradient id="paint0_linear_2611_687" x1="8.33922" y1="51.2124" x2="211.171" y2="51.2124" gradientUnits="userSpaceOnUse">
<stop stop-color="#F6DF75"/>
<stop offset="0.586538" stop-color="#FFB200"/>
<stop offset="0.793269" stop-color="#FBE47C"/>
<stop offset="0.975962" stop-color="#EFD86E"/>
</linearGradient>
</defs>
</svg>

<svg xmlns="http://www.w3.org/2000/svg" width="247" height="121" fill="none" viewBox="0 0 247 121"><path fill="url(#a)" d="M111.864 41.67q0-5.873-3.356-9.23-3.357-3.356-8.95-3.635-5.592-.28-10.626 2.237-4.755 2.238-7.551 5.034-2.517 2.797-3.636 4.474-.84 1.4-1.398 1.12-.56-.28.28-1.959.838-1.957 3.076-4.474 2.517-3.076 7.83-6.153 5.594-3.355 12.865-2.796 6.432.28 10.906 4.474 4.755 3.916 4.755 11.466 0 7.83-4.475 15.941-4.475 7.83-12.305 14.263-8.11 6.712-19.296 10.906-10.907 3.916-23.772 3.356-15.38-.839-24.05-7.55-8.67-6.713-8.39-19.856.279-12.584 8.67-23.492Q40.83 24.89 54.532 17.06 68.238 8.95 85.297 4.474A140.5 140.5 0 0 1 120.533 0q17.339 0 34.119 4.474 17.058 4.475 27.965 14.263 2.517-1.678 7.551-4.474a94 94 0 0 1 10.627-5.314q5.314-1.957 12.305-3.636 7.272-1.957 15.102-1.957 5.593 0 9.508 1.398t6.153 2.797q1.398 1.118 2.237 2.517.839 1.118.28 1.678-.56.28-1.119-.56-.56-.84-2.796-2.237-1.678-1.119-5.314-1.958-3.636-1.118-8.949-1.118-6.712 0-13.424 1.678t-12.584 4.195q-5.593 2.517-10.348 5.593-4.475 2.797-6.432 4.474 6.433 6.991 9.508 15.102a46.9 46.9 0 0 1 3.077 16.78 53 53 0 0 1-2.238 17.059q-2.237 8.39-7.271 15.66-5.873 8.67-14.822 15.102t-19.576 10.627a110.7 110.7 0 0 1-22.093 6.153q-11.186 1.957-21.813 1.957-10.907 0-21.814-.559-10.905-.28-16.5-.839-5.873.56-13.983 1.119-7.83.56-13.703.559H26.568q-8.11 0-13.983-.559-5.873-.28-9.23-1.399Q0 117.457 0 115.499q.56-3.915 12.025-4.754 11.466-1.119 28.525-.559 7.552.279 18.178 1.678 10.627 1.118 19.297 2.517 8.67-2.517 15.66-7.551a117 117 0 0 0 13.704-11.746 183 183 0 0 0 12.305-14.263 502 502 0 0 1 12.585-15.38 526 526 0 0 1 10.906-12.306 777 777 0 0 1 12.026-12.305 304 304 0 0 1 12.025-10.907q6.153-5.033 11.187-8.39-4.755-4.753-11.466-8.39-6.712-3.634-14.543-5.872a93 93 0 0 0-16.22-3.636q-8.11-1.118-15.661-1.118-16.5 0-31.881 4.754-15.102 4.755-26.847 12.864T42.788 39.152q-6.992 10.627-7.271 22.373 0 9.229 5.033 15.66 5.314 6.153 15.941 6.713 11.746.838 21.814-3.356 10.067-4.475 17.618-11.187 7.271-6.711 11.466-13.983 4.475-7.55 4.475-13.423zM82.22 115.22q1.398.279 4.195.559 3.075.28 6.432.839l6.712.559q3.635.28 6.152.28 21.534 0 39.432-9.229Q163.322 99 176.745 80.542q5.034-6.992 7.83-14.543t3.356-15.101q.839-7.55-.839-14.263-1.399-6.712-5.593-12.025-3.636 3.355-7.831 8.67-3.915 5.313-8.389 11.465a386 386 0 0 0-8.95 12.865 212 212 0 0 1-9.228 12.305q-8.11 9.787-15.941 17.059-7.83 7.27-15.661 12.585-7.83 5.313-16.22 8.949-8.11 3.635-17.06 6.432z"/><defs><linearGradient id="a" x1="8.339" x2="211.171" y1="51.212" y2="51.212" gradientUnits="userSpaceOnUse"><stop stop-color="#f6df75"/><stop offset=".587" stop-color="#ffb200"/><stop offset=".793" stop-color="#fbe47c"/><stop offset=".976" stop-color="#efd86e"/></linearGradient></defs></svg>
